Yaru++/emotes/16/face-yawn.svg

<svg height="16" width="16" xmlns="http://www.w3.org/2000/svg"><g stroke-width="1.142857"><path d="m8 0a8 8 0 1 0 0 16 8 8 0 0 0 0-16zm-2.8217143 3.4285714c.84 0 1.6788572.5097143 1.6788572 1.5005715-1.7142858-.3874286-3.5714286 1.9794285-3.4285715 0 .072-.9908572.9108572-1.5005715 1.7497143-1.5005715zm5.6434283 0c.838857 0 1.678857.5097143 1.749715 1.5005715.142857 1.9794285-1.714286-.3874286-3.428572 0 0-.9908572.838857-1.5005715 1.678857-1.5005715zm-2.821714 3.4285715c1.577143 0 2.857143 1.5348571 2.857143 3.4285711 0 1.893715-1.28 3.428572-2.857143 3.428572-1.5771429 0-2.8571429-1.534857-2.8571429-3.428572 0-1.893714 1.28-3.4285711 2.8571429-3.4285711z" fill="#fdc92b"/><path d="m8 0a8 8 0 0 0 -7.9866071 8.3482143 8 8 0 0 1 7.9866071-7.77678573 8 8 0 0 1 7.986607 7.65178573 8 8 0 0 0 -7.986607-8.2232143zm-1.4665178 4.8861607c-1.4527024-.0597334-2.8953173 1.4898033-3.0781251.4620536-.0083457.0511022-.0228646.097825-.0267857.1517857-.1428571 1.9794286 1.7142857-.3874286 3.4285715 0 0-.2213709-.0483688-.4140325-.1227679-.5870536-.0667382-.0101237-.1340025-.0240352-.2008928-.0267857zm2.9330358 0c-.06689.00275-.134155.016662-.200893.026786-.0744.1730211-.122768.3656827-.122768.5870536 1.714286-.3874286 3.571429 1.9794286 3.428572 0-.004-.055561-.01811-.1037192-.02679-.1562501-.179976 1.0352029-1.623688-.5173941-3.078121-.4575895zm-4.2991073 5.6852683c-.00669.09568-.024554.187957-.024554.285714 0 1.893714 1.28 3.428571 2.8571429 3.428571 1.5771434 0 2.8571434-1.534857 2.8571434-3.428571 0-.09776-.01787-.190032-.02455-.285714-.12285 1.757848-1.336865 3.142857-2.832593 3.142857-1.4957279 0-2.7097433-1.385009-2.8325893-3.142857z" fill="#fff" opacity=".3"/><path d="m5.1785714 2.8571429c-.8388571 0-1.678.5091428-1.75 1.5-.013536.1875585.00623.3040881.026786.4196428.1449039-.8872655.9300402-1.3482143 1.7232143-1.3482143.6523327 0 1.297192.3115241 1.5558036.9129464.040753.00618.082147.00644.1227679.015625 0-.9908572-.8385715-1.5-1.6785718-1.4999999zm5.6428576 0c-.84 0-1.678572.5091428-1.678572 1.5.04062-.00918.08202-.00944.122768-.015625.258612-.6014223.903471-.9129464 1.555804-.9129464.791819 0 1.577195.4594729 1.723213 1.34375.02-.1150225.04018-.2296071.02679-.4151785-.07086-.9908572-.911143-1.5-1.75-1.5zm-2.821429 3.4285714c-1.5771429 0-2.8571429 1.5348571-2.8571429 3.4285714 0 .097757.017867.1900318.024554.2857143.1228456-1.7578482 1.336861-3.1428571 2.8325889-3.1428571 1.495728 0 2.709743 1.3850089 2.83259 3.1428571.0067-.095683.02455-.1879574.02455-.2857143 0-1.8937143-1.28-3.4285714-2.857143-3.4285714zm7.986607 1.3660714a8 8 0 0 1 -7.986607 7.7767853 8 8 0 0 1 -7.9866071-7.6517853 8 8 0 0 0 7.9866071 8.2232143 8 8 0 0 0 7.986607-8.3482143z" fill="#040404" opacity=".2"/></g></svg>

<?xml version="1.0" encoding="UTF-8" standalone="no"?>
<svg
   xmlns:dc="http://purl.org/dc/elements/1.1/"
   xmlns:cc="http://creativecommons.org/ns#"
   xmlns:rdf="http://www.w3.org/1999/02/22-rdf-syntax-ns#"
   xmlns:svg="http://www.w3.org/2000/svg"
   xmlns="http://www.w3.org/2000/svg"
   xmlns:sodipodi="http://sodipodi.sourceforge.net/DTD/sodipodi-0.dtd"
   xmlns:inkscape="http://www.inkscape.org/namespaces/inkscape"
   width="16"
   height="16"
   version="1.1"
   id="svg4"
   sodipodi:docname="face-yawn.svg"
   inkscape:version="0.92.4 (5da689c313, 2019-01-14)">
  <metadata
     id="metadata10">
    <rdf:RDF>
      <cc:Work
         rdf:about="">
        <dc:format>image/svg+xml</dc:format>
        <dc:type
           rdf:resource="http://purl.org/dc/dcmitype/StillImage" />
      </cc:Work>
    </rdf:RDF>
  </metadata>
  <defs
     id="defs8" />
  <sodipodi:namedview
     pagecolor="#ffffff"
     bordercolor="#666666"
     borderopacity="1"
     objecttolerance="10"
     gridtolerance="10"
     guidetolerance="10"
     inkscape:pageopacity="0"
     inkscape:pageshadow="2"
     inkscape:window-width="1920"
     inkscape:window-height="1016"
     id="namedview6"
     showgrid="false"
     inkscape:zoom="14.75"
     inkscape:cx="-4.8813559"
     inkscape:cy="8"
     inkscape:window-x="0"
     inkscape:window-y="27"
     inkscape:window-maximized="1"
     inkscape:current-layer="svg4" />
  <path
     d="M 8,0 A 8,8 0 1 0 8,16 8,8 0 0 0 8,0 Z M 5.1782857,3.4285714 c 0.84,0 1.6788572,0.5097143 1.6788572,1.5005715 -1.7142858,-0.3874286 -3.5714286,1.9794285 -3.4285715,0 0.072,-0.9908572 0.9108572,-1.5005715 1.7497143,-1.5005715 z m 5.6434283,0 c 0.838857,0 1.678857,0.5097143 1.749715,1.5005715 0.142857,1.9794285 -1.714286,-0.3874286 -3.428572,0 0,-0.9908572 0.838857,-1.5005715 1.678857,-1.5005715 z M 8,6.8571429 c 1.577143,0 2.857143,1.5348571 2.857143,3.4285711 0,1.893715 -1.28,3.428572 -2.857143,3.428572 -1.5771429,0 -2.8571429,-1.534857 -2.8571429,-3.428572 0,-1.893714 1.28,-3.4285711 2.8571429,-3.4285711 z"
     id="path2"
     style="fill:#fdc92b;fill-opacity:1;stroke-width:1.14285719"
     inkscape:connector-curvature="0" />
  <path
     style="opacity:0.3;fill:#ffffff;fill-opacity:1;stroke-width:1.14285719"
     d="M 8,0 A 8,8 0 0 0 0.0133929,8.3482143 8,8 0 0 1 8,0.57142857 8,8 0 0 1 15.986607,8.2232143 8,8 0 0 0 8,0 Z M 6.5334822,4.8861607 C 5.0807798,4.8264273 3.6381649,6.375964 3.4553571,5.3482143 3.4470114,5.3993165 3.4324925,5.4460393 3.4285714,5.5 3.2857143,7.4794286 5.1428571,5.1125714 6.8571429,5.5 6.8571429,5.2786291 6.8087741,5.0859675 6.734375,4.9129464 6.6676368,4.9028227 6.6003725,4.8889112 6.5334822,4.8861607 Z m 2.9330358,0 c -0.06689,0.00275 -0.134155,0.016662 -0.200893,0.026786 -0.0744,0.1730211 -0.122768,0.3656827 -0.122768,0.5870536 1.714286,-0.3874286 3.571429,1.9794286 3.428572,0 -0.004,-0.055561 -0.01811,-0.1037192 -0.02679,-0.1562501 C 12.364663,6.3789531 10.920951,4.8263561 9.466518,4.8861607 Z M 5.1674107,10.571429 c -0.00669,0.09568 -0.024554,0.187957 -0.024554,0.285714 0,1.893714 1.28,3.428571 2.8571429,3.428571 1.5771434,0 2.8571434,-1.534857 2.8571434,-3.428571 0,-0.09776 -0.01787,-0.190032 -0.02455,-0.285714 C 10.709743,12.329277 9.495728,13.714286 8,13.714286 c -1.4957279,0 -2.7097433,-1.385009 -2.8325893,-3.142857 z"
     id="path823"
     inkscape:connector-curvature="0" />
  <path
     style="opacity:0.2;fill:#040404;fill-opacity:1;stroke-width:1.14285719"
     d="m 5.1785714,2.8571429 c -0.8388571,0 -1.678,0.5091428 -1.75,1.5 -0.013536,0.1875585 0.00623,0.3040881 0.026786,0.4196428 0.1449039,-0.8872655 0.9300402,-1.3482143 1.7232143,-1.3482143 0.6523327,0 1.297192,0.3115241 1.5558036,0.9129464 0.040753,0.00618 0.082147,0.00644 0.1227679,0.015625 0,-0.9908572 -0.8385715,-1.5 -1.6785718,-1.4999999 z m 5.6428576,0 c -0.84,0 -1.678572,0.5091428 -1.678572,1.5 0.04062,-0.00918 0.08202,-0.00944 0.122768,-0.015625 0.258612,-0.6014223 0.903471,-0.9129464 1.555804,-0.9129464 0.791819,0 1.577195,0.4594729 1.723213,1.34375 0.02,-0.1150225 0.04018,-0.2296071 0.02679,-0.4151785 -0.07086,-0.9908572 -0.911143,-1.5 -1.75,-1.5 z M 8,6.2857143 c -1.5771429,0 -2.8571429,1.5348571 -2.8571429,3.4285714 0,0.097757 0.017867,0.1900318 0.024554,0.2857143 C 5.2902567,8.2421518 6.5042721,6.8571429 8,6.8571429 c 1.495728,0 2.709743,1.3850089 2.83259,3.1428571 0.0067,-0.095683 0.02455,-0.1879574 0.02455,-0.2857143 0,-1.8937143 -1.28,-3.4285714 -2.857143,-3.4285714 z m 7.986607,1.3660714 A 8,8 0 0 1 8,15.428571 8,8 0 0 1 0.0133929,7.7767857 8,8 0 0 0 8,16 8,8 0 0 0 15.986607,7.6517857 Z"
     id="path828"
     inkscape:connector-curvature="0" />
</svg>
